X: 31774
T: Patrick O'Connor's
R: polka
M: 2/4
K: Adorian
|:AB/d/ eA|eA e2|dB gB|dB g2|
AB/d/ eA|eA e2|dB gB|A2 A2:|
|:ag ef/g/|ag e2|dB gB|dB g2|
ag ef/g/|ag e2|dB gB|A2 A2:|

